src/assets/Traced.svg

<svg width="81" height="80" viewBox="0 0 81 80" fill="none" xmlns="http://www.w3.org/2000/svg">
<path fill-rule="evenodd" clip-rule="evenodd" d="M28.2634 12.1709C27.708 12.3059 26.9394 13.0076 26.6505 13.6434C26.431 14.1268 26.3652 14.637 26.3634 15.8701C26.362 16.7499 26.4304 17.72 26.5153 18.0261C26.711 18.7305 27.6886 19.6286 28.4066 19.7632L28.9489 19.865V21.1429V22.4209H26.8477H24.7465L24.5561 21.6973C24.158 20.1846 23.1683 18.489 21.9026 17.1519C20.4658 15.6341 18.9543 14.6421 17.0957 13.9973C15.9769 13.6092 15.4747 13.5266 13.8613 13.4661C11.5729 13.3803 10.0886 13.6856 8.15402 14.6402C5.32637 16.0355 3.35306 18.3434 2.26243 21.5309C1.81607 22.8357 1.77478 23.1189 1.7661 24.9346C1.75833 26.5572 1.81881 27.1297 2.10049 28.1032C2.70423 30.1897 3.63764 31.8002 5.11035 33.2967C6.63653 34.8474 8.8804 36.062 11.0345 36.5032L11.9626 36.6934L11.9527 39.7261C11.9446 42.2467 11.8851 43.0408 11.6005 44.4288C10.5417 49.5906 7.8114 53.7626 3.63886 56.594C1.88858 57.7817 1.45105 58.6138 1.84212 60.0105C2.00497 60.5923 2.29473 60.9777 3.35794 62.0275C6.22444 64.8575 9.67304 66.7721 13.5467 67.684C15.6835 68.1872 16.2243 67.9956 17.6732 66.2225C21.1794 61.9315 24.1382 55.6746 25.3166 50.0589L25.6496 48.4717H33.9362C39.944 48.4717 42.3144 48.5204 42.5557 48.6488C43.0247 48.8987 43.2587 49.2462 43.2644 49.7008C43.2822 51.1407 44.2869 52.6658 45.6306 53.2929L46.3923 53.6483L58.8083 53.6475C72.4867 53.6468 72.2737 53.66 74.1047 52.7001C75.346 52.0493 76.7765 50.5874 77.3888 49.3437C77.7614 48.5867 78.0524 47.4854 78.6255 44.6631C79.0376 42.6332 79.3747 40.7718 79.3747 40.5265C79.3747 39.5291 78.4247 38.3717 77.4451 38.1758L77.0134 38.0894V34.1549V30.2203L77.6095 30.1403C78.3955 30.035 78.9154 29.6371 79.3478 28.8103C79.645 28.2419 79.6876 27.9875 79.6144 27.2197C79.4311 25.2985 78.1406 23.5688 76.3502 22.8449L75.49 22.4971L61.3601 22.4544L47.2302 22.4119V21.1214V19.831L53.2859 19.8262C59.6627 19.8211 59.6253 19.8251 60.0022 19.1175C60.2414 18.6682 60.2233 16.8864 59.9698 15.9344C59.6418 14.7025 58.8216 13.5973 57.7038 12.8808C56.4162 12.0556 56.5027 12.06 41.9804 12.0792C34.6036 12.0889 28.431 12.1302 28.2634 12.1709ZM28.9489 15.9463V17.2412H39.9939H51.0388V15.9463V14.6514H39.9939H28.9489V15.9463ZM53.6286 15.9262V17.2412H55.6281H57.6277L57.5302 16.754C57.4013 16.1093 57.1024 15.6742 56.4432 15.1715C55.9962 14.8305 55.6988 14.7441 54.7644 14.6841L53.6286 14.6113V15.9262ZM11.1247 16.2674C8.47029 16.9801 6.34128 18.756 5.1888 21.2189C3.52232 24.7801 4.21121 28.6303 7.01952 31.4495C8.96647 33.4041 11.3487 34.2991 14.0901 34.1056C18.7174 33.779 22.4044 29.8705 22.4385 25.2552C22.4588 22.5144 21.6665 20.5786 19.7498 18.6868C18.4097 17.3638 17.2506 16.6873 15.5969 16.2627C14.4338 15.9641 12.2458 15.9664 11.1247 16.2674ZM11.5589 18.8516C8.47014 19.8024 6.5212 22.8839 7.01358 26.0378C7.2331 27.4443 7.81673 28.5772 8.8609 29.6243C12.0199 32.7921 17.3237 31.8458 19.255 27.7697C19.6997 26.8312 19.7321 26.6487 19.7321 25.0869C19.7321 23.5193 19.7008 23.345 19.2469 22.3869C18.1121 19.9912 15.8992 18.6012 13.2575 18.6248C12.7129 18.6295 11.9486 18.7316 11.5589 18.8516ZM31.5388 21.1243V22.4209H38.0957H44.6527L44.6084 21.164L44.5642 19.9072L38.0515 19.8675L31.5388 19.8278V21.1243ZM11.8103 21.5606C10.9064 21.9823 10.0211 22.9123 9.74144 23.7339C9.4756 24.5152 9.50044 25.8651 9.79339 26.5555C10.3688 27.9112 11.9466 28.9717 13.3884 28.9717C15.4914 28.9717 17.2205 27.2208 17.217 25.0951C17.2124 22.2292 14.3655 20.3682 11.8103 21.5606ZM25.085 25.5058C24.6823 28.3896 24.3693 29.41 23.3598 31.1328C22.3627 32.834 20.4258 34.6047 18.5134 35.5631C17.6871 35.9772 15.8946 36.5412 15.1618 36.6175C14.7287 36.6626 14.7048 36.701 14.7048 37.3506V38.0361L41.2126 38.0805C60.228 38.1123 67.8853 38.0774 68.3036 37.9566C69.2222 37.6914 69.3197 37.2873 69.3216 33.7373C69.3229 30.8938 69.3432 30.68 69.6817 29.9534C70.0904 29.0754 71.1003 28.1355 71.9 27.8888C72.1987 27.7966 73.4938 27.6856 74.7781 27.642L77.1132 27.5629L77.0146 27.1627C76.7591 26.1256 76.0283 25.3902 75.0212 25.1565C74.6757 25.0765 64.029 25.0165 49.7888 25.0144L25.1542 25.0107L25.085 25.5058ZM30.5583 27.7689C29.6941 27.9755 29.0166 28.5558 28.7139 29.3486C28.3898 30.197 28.473 30.7983 29.1016 32.1485C29.9172 33.9007 30.4768 34.7066 31.1428 35.0884L31.7673 35.4463L40.6794 35.4937C45.5811 35.5197 49.948 35.4981 50.3837 35.4455C51.354 35.3287 52.0668 34.8697 52.5193 34.0706C53.0048 33.2135 52.9583 32.5016 52.3275 31.1325C51.4558 29.2407 50.9017 28.4276 50.216 28.0346L49.5915 27.6767L40.3747 27.6511C35.0428 27.6364 30.9052 27.686 30.5583 27.7689ZM54.1941 27.9692C54.0444 28.0827 53.8594 28.3934 53.7833 28.6592C53.658 29.0957 53.7924 29.4383 55.1632 32.1782C56.7527 35.3553 56.8481 35.472 57.7998 35.4059C58.2948 35.3716 58.8083 34.7572 58.8083 34.1993C58.8083 33.645 56.4302 28.7025 55.8716 28.0957C55.5087 27.7016 54.6339 27.6356 54.1941 27.9692ZM59.2919 28.1054C58.7276 28.7063 58.8613 29.2337 60.3142 32.1345C61.6846 34.8701 61.9912 35.3163 62.5407 35.3735C63.3384 35.4565 63.7805 35.1794 63.9844 34.4687C64.1071 34.0406 63.9764 33.6966 62.7467 31.2142C61.9903 29.6875 61.2285 28.2843 61.0537 28.0957C60.6157 27.6237 59.7399 27.6286 59.2919 28.1054ZM31.2341 30.3449C31.2341 30.4313 31.5091 31.0487 31.8452 31.7172L32.4562 32.9326H41.3666C46.2674 32.9326 50.2748 32.8811 50.2719 32.8183C50.269 32.7556 49.9776 32.1556 49.6244 31.4853L48.9821 30.2666L40.1081 30.2273C34.0945 30.2006 31.2341 30.2386 31.2341 30.3449ZM72.2839 30.7168C71.9138 31.0867 71.9099 31.1206 71.9099 33.8947C71.9099 35.4368 71.8663 37.0168 71.813 37.4054L71.7161 38.1123H72.4272C73.3744 38.1123 74.1594 37.7689 74.3483 37.2718C74.4316 37.0529 74.4997 35.6408 74.4997 34.1338C74.4997 30.7194 74.3615 30.3428 73.1093 30.3428C72.8329 30.3428 72.5126 30.4879 72.2839 30.7168ZM14.6286 40.9366C14.6286 41.0656 14.5554 41.8369 14.4659 42.6505C14.0319 46.5952 12.8278 50.0055 10.7821 53.083C9.66436 54.7645 7.09706 57.383 5.52609 58.4438C4.91855 58.8539 4.4216 59.252 4.4216 59.3281C4.4216 59.5599 6.0887 61.111 7.31461 62.0201C8.84643 63.1558 10.5856 64.0444 12.5152 64.6774C15.0617 65.5127 14.9297 65.5227 15.7924 64.428C20.4419 58.5288 23.2539 50.7663 23.7109 42.5683L23.815 40.7021H21.9104H20.0056L19.9031 42.1875C19.4974 48.0655 17.1936 54.0129 13.3838 59.0177C11.9672 60.8785 11.3986 61.4209 10.8642 61.4209C9.95077 61.4209 9.23749 60.4389 9.61698 59.7038C9.71341 59.517 10.197 58.8705 10.6915 58.2672C14.5278 53.5862 16.8334 47.8516 17.2788 41.8828L17.3669 40.7021H15.9977C14.8667 40.7021 14.6286 40.743 14.6286 40.9366ZM26.3052 42.6445C26.2497 43.7128 26.1615 44.8783 26.1093 45.2344L26.0143 45.8818H30.757H35.4997V43.292V40.7021H32.5877H29.6756L29.9075 41.056C30.2012 41.5044 30.2593 41.8837 30.117 42.4261C29.9773 42.9588 29.1458 43.3611 28.6135 43.1533C28.1299 42.9647 27.3698 42.1244 26.9817 41.3496C26.8035 40.9936 26.601 40.7021 26.5319 40.7021C26.4627 40.7021 26.3608 41.5763 26.3052 42.6445ZM38.0896 43.2818V45.8613L40.5652 45.9219C41.9268 45.9551 43.1794 46.0322 43.3488 46.0931C43.6174 46.1897 43.7345 46.0441 44.2628 44.9589C44.5962 44.2743 45.0041 43.6191 45.1694 43.503C45.6135 43.1911 46.248 43.2463 46.6828 43.6348C47.3646 44.244 47.3289 44.5934 46.3947 46.4595C45.6015 48.044 45.5521 48.2046 45.6941 48.7369C45.778 49.0518 45.8864 49.5637 45.9348 49.8743C45.9904 50.2315 46.1697 50.5545 46.4229 50.7536C46.8208 51.0667 46.8903 51.0682 59.2554 51.0269L71.6881 50.9853L72.705 50.4846C73.9115 49.8906 74.8198 48.9317 75.24 47.8085C75.4013 47.3772 75.7858 45.7561 76.0945 44.206C76.4033 42.6559 76.6923 41.2335 76.7369 41.0449L76.8179 40.7021H72.9329H69.0478L69.1899 41.3347C69.4932 42.6847 68.7555 44.3873 67.5006 45.233C66.3364 46.0174 64.8501 46.0518 63.5148 45.3252C62.8314 44.9531 62.7118 44.9306 62.4158 45.1181C60.82 46.1289 59.0391 46.0683 57.6986 44.9576C56.6304 44.0726 56.0503 42.2567 56.4417 41.0234L56.5437 40.7021H47.3166H38.0896V43.2818ZM59.3621 41.0179C59.0653 41.2513 58.9607 41.4724 58.9607 41.8657C58.9607 42.5735 59.1583 42.9059 59.7166 43.1372C61.0272 43.6802 62.0921 41.8794 60.9783 41.0033C60.4842 40.6147 59.8676 40.6202 59.3621 41.0179ZM64.5144 41.0761C63.5046 42.0857 64.6729 43.7335 65.9356 43.0805C66.4228 42.8285 66.7794 42.0885 66.6249 41.65C66.2869 40.6909 65.1961 40.3942 64.5144 41.0761ZM50.3802 43.4628C49.93 43.7245 48.4163 46.9491 48.5298 47.4043C48.7357 48.2299 49.5233 48.6315 50.3031 48.3085C50.8823 48.0686 52.4789 44.9739 52.3369 44.3662C52.1408 43.527 51.0977 43.0455 50.3802 43.4628Z" fill="white"/>
</svg>

<svg xmlns="http://www.w3.org/2000/svg" width="81" height="80" fill="none" viewBox="0 0 81 80"><path fill="#fff" fill-rule="evenodd" d="M28.263 12.17c-.555.136-1.324.838-1.613 1.473-.219.484-.285.994-.287 2.227-.001.88.067 1.85.152 2.156.196.704 1.174 1.603 1.892 1.737l.542.102v2.556h-4.202l-.19-.724c-.399-1.512-1.389-3.208-2.654-4.545-1.437-1.518-2.949-2.51-4.807-3.155-1.12-.388-1.621-.47-3.235-.53-2.288-.087-3.772.219-5.707 1.173-2.828 1.395-4.8 3.703-5.892 6.89-.446 1.306-.487 1.589-.496 3.405-.008 1.622.053 2.195.334 3.168.604 2.087 1.538 3.697 3.01 5.194 1.527 1.55 3.77 2.765 5.924 3.206l.929.19-.01 3.033c-.008 2.52-.068 3.315-.352 4.703-1.06 5.162-3.79 9.334-7.962 12.165-1.75 1.188-2.188 2.02-1.797 3.416.163.582.453.968 1.516 2.018 2.866 2.83 6.315 4.744 10.189 5.656 2.137.503 2.677.312 4.126-1.462 3.506-4.29 6.465-10.547 7.644-16.163l.333-1.587h8.286c6.008 0 8.378.048 8.62.177.469.25.703.597.708 1.052.018 1.44 1.023 2.965 2.367 3.592l.761.355h12.416c13.679-.001 13.466.012 15.297-.948 1.241-.65 2.671-2.113 3.284-3.356.372-.757.663-1.859 1.237-4.68.412-2.03.749-3.892.749-4.138 0-.997-.95-2.154-1.93-2.35l-.432-.087V30.22l.596-.08c.787-.105 1.306-.503 1.739-1.33.297-.568.34-.822.266-1.59-.183-1.921-1.473-3.651-3.264-4.375l-.86-.348-14.13-.043-14.13-.042V19.83l6.056-.005c6.377-.005 6.34 0 6.716-.709.24-.449.221-2.23-.032-3.183-.328-1.231-1.148-2.337-2.266-3.053-1.288-.825-1.201-.821-15.724-.802-7.376.01-13.549.051-13.717.092m.686 3.776v1.295h22.09v-2.59h-22.09zm24.68-.02v1.315h3.999l-.098-.487c-.129-.645-.428-1.08-1.087-1.583-.447-.34-.744-.427-1.679-.487l-1.135-.073zm-42.504.341c-2.655.713-4.784 2.489-5.936 4.952-1.667 3.561-.978 7.411 1.83 10.23 1.947 1.955 4.33 2.85 7.071 2.657 4.627-.327 8.314-4.236 8.349-8.85.02-2.742-.773-4.677-2.69-6.57-1.34-1.322-2.498-1.999-4.152-2.423-1.163-.299-3.351-.297-4.472.004m.434 2.585c-3.089.95-5.038 4.032-4.545 7.186.22 1.406.803 2.54 1.847 3.586 3.159 3.168 8.463 2.222 10.394-1.854.445-.939.477-1.121.477-2.683 0-1.568-.031-1.742-.485-2.7-1.135-2.396-3.348-3.786-5.99-3.762-.544.005-1.308.107-1.698.227m19.98 2.272v1.297h13.114l-.045-1.257-.044-1.257-6.513-.04-6.512-.04zm-19.729.437c-.904.421-1.789 1.351-2.069 2.173-.265.781-.24 2.131.052 2.821.576 1.356 2.154 2.417 3.595 2.417 2.103 0 3.833-1.751 3.829-3.877-.005-2.866-2.851-4.727-5.407-3.534m13.275 3.945c-.403 2.884-.716 3.904-1.725 5.627-.997 1.701-2.934 3.472-4.847 4.43-.826.414-2.618.978-3.351 1.054-.433.046-.457.084-.457.734v.685l26.508.044c19.015.032 26.672-.003 27.09-.123.92-.266 1.017-.67 1.019-4.22 0-2.843.021-3.057.36-3.784.408-.878 1.418-1.817 2.218-2.064.299-.092 1.594-.203 2.878-.247l2.335-.08-.098-.4c-.256-1.036-.987-1.772-1.994-2.005-.345-.08-10.992-.14-25.232-.143l-24.635-.003zm5.473 2.263c-.864.207-1.541.787-1.844 1.58-.324.848-.241 1.45.388 2.8.815 1.752 1.375 2.558 2.04 2.94l.625.357 8.912.048c4.902.026 9.269.004 9.705-.048q1.456-.176 2.135-1.375c.486-.857.44-1.57-.191-2.938-.872-1.892-1.426-2.705-2.112-3.098l-.624-.358-9.217-.026c-5.332-.015-9.47.035-9.817.118m23.636.2c-.15.114-.335.424-.41.69-.126.437.008.78 1.38 3.52 1.589 3.176 1.684 3.293 2.636 3.227.495-.034 1.008-.649 1.008-1.207 0-.554-2.378-5.496-2.936-6.103-.363-.394-1.238-.46-1.678-.127m5.098.136c-.564.601-.43 1.129 1.022 4.03 1.37 2.735 1.677 3.181 2.227 3.239.797.082 1.24-.195 1.443-.905.123-.428-.008-.772-1.237-3.255-.757-1.526-1.519-2.93-1.693-3.118-.438-.472-1.314-.467-1.762.01m-28.058 2.24c0 .086.275.704.611 1.372l.611 1.216h8.91c4.901 0 8.909-.052 8.906-.115-.003-.062-.294-.662-.648-1.333l-.642-1.218-8.874-.04c-6.014-.026-8.874.012-8.874.118m41.05.372c-.37.37-.374.404-.374 3.178 0 1.542-.044 3.122-.097 3.51l-.097.707h.711c.947 0 1.732-.343 1.921-.84.084-.22.152-1.631.152-3.138 0-3.415-.138-3.791-1.39-3.791-.277 0-.597.145-.826.374m-57.655 10.22c0 .129-.074.9-.163 1.714-.434 3.944-1.638 7.354-3.684 10.432-1.118 1.681-3.685 4.3-5.256 5.36-.607.41-1.104.809-1.104.885 0 .232 1.667 1.783 2.893 2.692 1.531 1.136 3.27 2.024 5.2 2.657 2.547.836 2.415.846 3.277-.249 4.65-5.9 7.462-13.662 7.919-21.86l.104-1.866h-3.809l-.103 1.486c-.406 5.877-2.71 11.825-6.52 16.83-1.416 1.86-1.984 2.403-2.519 2.403-.913 0-1.627-.982-1.247-1.717.096-.187.58-.834 1.074-1.437 3.837-4.68 6.142-10.415 6.588-16.384l.088-1.18h-1.37c-1.13 0-1.368.04-1.368.234m11.676 1.708c-.055 1.068-.143 2.233-.196 2.59l-.095.647H35.5v-5.18h-5.824l.232.354c.293.448.351.828.209 1.37-.14.533-.971.935-1.504.727-.483-.188-1.243-1.029-1.631-1.803-.178-.356-.381-.648-.45-.648-.07 0-.171.874-.227 1.943m11.785.637v2.58l2.475.06c1.362.033 2.614.11 2.784.171.268.097.386-.049.914-1.134.333-.685.741-1.34.906-1.456.445-.312 1.079-.257 1.514.132.682.609.646.958-.288 2.825-.794 1.584-.843 1.745-.7 2.277.083.315.191.827.24 1.137a1.4 1.4 0 0 0 .488.88c.398.313.467.314 12.832.273l12.433-.042 1.017-.5c1.207-.594 2.115-1.553 2.535-2.676.161-.432.546-2.053.855-3.603s.597-2.973.642-3.161l.08-.343h-7.769l.142.633c.303 1.35-.434 3.052-1.69 3.898-1.164.784-2.65.819-3.985.092-.684-.372-.803-.394-1.1-.207-1.595 1.01-3.376.95-4.716-.16-1.069-.885-1.649-2.701-1.257-3.935l.102-.32H38.09zm21.272-2.264c-.297.233-.401.454-.401.848 0 .708.197 1.04.756 1.271 1.31.543 2.375-1.258 1.261-2.134-.494-.388-1.11-.383-1.616.015m5.152.058c-1.01 1.01.159 2.657 1.422 2.005.487-.253.843-.992.689-1.431-.338-.96-1.429-1.256-2.11-.574M50.38 43.463c-.45.261-1.964 3.486-1.85 3.941.206.826.993 1.227 1.773.904.58-.24 2.176-3.334 2.034-3.942-.196-.839-1.24-1.32-1.957-.903" clip-rule="evenodd"/></svg>
